X:93
T: Der Morgenstern ist aufgegangen
N: A0108
O: Europa, Mitteleuropa, Deutschland
N: M. Praetorius, Mus. Sion. VI. 1609 No. 194.
R: Romanze, Ballade, Lied
M: 4/4
L: 1/8
K: F
c2 | c2A2F2G2 | ABc4A2 | B4A4
z2c2c4 | A2G4F2 | B2G2c4 | A4z2
A2 | AAABc2c2 | c2BAG4 | F2EDC4
z2C2F2F2 | G2G2ABc2 | A2A2G2F2 | A4G4 | F8

